X: 42006
T: Walsh's
R: hornpipe
M: 4/4
K: Gmajor
(3GAB DE GBdB|(3cde AB cde2|edBd gdBG|AcBG AGE2|
(3GAB DE GBdB|(3cde AB cde2|edBd gdBG|(3ABc BAG2z2:|
gdBd edBd|gdBd edBd|GdBd gdBg|AcBG AGE2|
(3GAB DE GBdB|(3cde AB cde2|edBd gdBG|(3ABc BAG2z2:|

